!!!OTL: Kleiner feiner Almanach.
!!!OTL-incipit: NUR EIN GESICHT AUF ERDEN LEBT
!!!ARE: Europa, Mitteleuropa, Deutschland
!!!SCT: Z0274
!!!TXL: @@DE
!!!YEM: Copyright 1995, estate of Helmut Schaffrath.
**kern	**text
*ICvox	*
*M6/8	*
*k[]	*
*C:	*
!LO:TX:a:t=Kleiner feiner Almanach.	!
{8g	Nur
=1	=1
4cc	ein
16eeL	Ge-
16ccJ	.
4ff	-ſicht
8ee	auf
=2	=2
4dd	Er-
16ffL	-den
16ddJ	.
4gg}	lebt,
{8ff	ſo
=3	=3
4ee	mich
16ddL	ver-
16ccJ	.
4ff	-gnü-
8ee	-gen
=4	=4
4.dd	kann.
4r}	.
{8g	Nur
=5	=5
4cc	eins
16eeL	un-
16ccJ	.
4ff	-ter
8ee	der
=6	=6
4dd	Son-
16ffL	-ne
16ddJ	.
4gg}	ſchwebt,
{8ff	ſo
=7	=7
4ee	ich
16ddL	nicht
16ccJ	.
4ff	mei-
8ee	-den
=8	=8
4.dd	kann,
4r}	.
{8g	Mein
=9	=9
4dd	Herʒ
16eeL	im
16ccJ	.
4dd	Leib
8gg	für
=10	=10
4gg	Freud
16ffL	auf-
16eeJ	.
4dd}	-ſpringt,
{8ff	wenn
=11	=11
8.eeL	ich
16ddJ	.
8cc	nur
8.ddL	denk
16ffJ	.
16eeL	dar-
16ddJ	.
=12	=12
4.cc	-an,
4r}	.
{8g	a-
=13	=13
4dd	-ber
16eeL	der
16ccJ	.
4dd	Seel
8gg	groß'
=14	=14
4gg	Schmerʒen
16ffL	.
16eeJ	.
4dd}	bringt,
{8ff	wenn
=15	=15
8.eeL	ich's
16ddJ	.
8cc	nicht
8.ddL	ſe-
16ffJ	.
16eeL	-hen
16ddJ	.
=16	=16
4.cc	kann.
4r}	.
==	==
!!!AGN: Lyrisches Lied, Romanze
!!!ONB: ESAC (Essen Associative Code) Database: ZUCCAL
!!!AMT: compound duple
!!!AIN: vox
!!!EED: Helmut Schaffrath
!!!EEV: 1.0
!!!GTL: IV. Lyrische Lieder.
!!!URL-scan: https://www.digitale-sammlungen.de/de/view/bsb11160571?page=497
!!!ENC: Anna Maria Matuszewska
!!!EEV: 2025/01/30
*-	*-
